!!!OTL: 68c. Flucht aus dem Kloster.
!!!ARE: Europa, Mitteleuropa, Deutschland, Franken
!!!SCT: E0068A
!!!TXL: @@DE
!!!YEM: Copyright 1995, estate of Helmut Schaffrath.
**kern	**text
*ICvox	*
*M2/4	*
*k[f#]	*
*G:	*
!LO:TX:a:t=Mäßig.	!
!LO:TX:a:t=Aus Franken.	!
{8d	Es
=1	=1
8g	wollt
8g	ein
8g	Mädchen
(16g	.
16a)	ins
=2	=2
8b/	Kloſter
8b/	.
8a}	gehn,
{8b/	wollt
=3	=3
8cc	werden
8b	.
8a	ei-
8g	-ne
=4	=4
4a	Nonn;
8r}	.
{8dd	das
=5	=5
8dd	thut
8dd	ſein
8dd	Schatʒ
16eeL	ſehr
16ddJ	.
=6	=6
8ddL	krän-
8ccJ	.
8cc;}	-ken,
{16aL	das
16bJ	.
=7	=7
8cc	thut
8cc	ſein
8cc	Schatʒ
16ddL	ſehr
16ccJ	.
=8	=8
8bL	krän-
8aJ	.
8b/;}	-ken,
{16g	daß
16a	will
=9	=9
8b	wer-
16ddL	-den
16ccJ	.
8b/	ei-
8a	-ne
=10	=10
4g	Nonn.
8r}	.
==	==
!!!AGN: erzaehlendes Volks - Lied, Sage, Liebe, Ballade ?
!!!ONB: ESAC (Essen Associative Code) Database: ERK1
!!!AMT: simple duple
!!!AIN: vox
!!!EED: Helmut Schaffrath
!!!EEV: 1.0
!!!GTL: Liebesgeschichten mit gluecklichem Ausgange
!!!URL-scan: https://rosdok.uni-rostock.de/mcrviewer/recordIdentifier/rosdok_ppn745146120/iview2/phys_0309.iview2?x=-495.6391625615772&y=1934.7002277676947&scale=0.46294184720638515&rotation=0&layout=singlePageLayout&logicalDiv=log_0009
!!!ENC: Anna Maria Matuszewska
!!!EEV: 2024/11/26
*-	*-
